X: 27223
T: Miss Russell Of Blackhall
R: jig
M: 6/8
K: Gminor
D|G^FG BAB|G^FG D2=E|F=EF fcA|cAF FGA|
G^FG BAB|d^cd g^fg|dcB cBA|1 BGG G2D:|2 BGG G2d||
gdb ag^f|g3 d2=e|fca gf=e|fAB cBA|
gdb ag^f|g3 gfe|dcB cBA|BGG G2d|
gdb ag^f|gdb ag^f|fca gf=e|fAB cBA|
BAG cBA|dcB edc|dba ga^f|gdB G2||

